/* XPM */
static char *east[] = {
"64 64 37 1",
"  c None",
". c #08070A",
": c #100B12",
"- c #1A0E16",
"= c #241018",
"+ c #331018",
"* c #4A1016",
"# c #68151A",
"% c #8B1E22",
"@ c #B62D2E",
"$ c #D84A42",
"a c #181820",
"b c #23242C",
"c c #30323A",
"d c #42444B",
"e c #0D0D10",
"f c #050506",
"g c #2B0C12",
"h c #5A1620",
"i c #7A2028",
"j c #A03030",
"k c #C7453C",
"l c #E07A58",
"m c #11131A",
"n c #1C2028",
"o c #2A3038",
"p c #39424A",
"q c #4F5A60",
"r c #150808",
"s c #2A0A0A",
"t c #3E0B0B",
"u c #5C1010",
"v c #7C1818",
"w c #A72820",
"x c #CF3D2E",
"y c #F06A45",
"z c #2F2520",
"gggggggggggggggggggggggggggggggggggggggggggggggggggggggggggggggg",
"gggggggggggggggggggggggggggggggggggggggggggggggggggggggggggggggg",
"gggggggggggggggggggggggggggggggggggggggggggggggggggggggggggggggg",
"gggggggggggggggggggggggggggggggggggggggggggggggggggggggggggggggg",
"gggggggggggggggggggggggggggggggggggggggggggggggggggggggggggggggg",
"gggggggggggggggggggggggggggggggggggggggggggggggggggggggggggggggg",
"hhhhhhhhhhhhhihhhhhhhhhhhhhhhhihhhhhhhhhhhhhhhhihhhhhhhhhhhhhhhh",
"ihhhhhhhhhhhhhhhhihhhhhhhhhhhhhhhhihhhhhhhhhhhhhhhhihhhhhhhhhhhi",
"hhhhihhhhhhhhhhhhhhhhihhhhhhhhhhhhhhhhihhhhhhhhhhhhhhhhihhhhhhhh",
"hhhhhhhhihhhhhhhhhhhhhhhhihhhhhhhhhhhhhhhhihhhhhhhhhhhhhhhhihhhh",
"hhhhffffffffihhhhhhhhhhhhhhhhihhhhhfffffffffhhihhhhhhhhhhhhhhhhh",
"hhffhhhhhfhhffhhihhhhhhhhhhhhhhhhffhfhhhhhhhffhhhhihhhhhhhhhhhhh",
"ffhihhhhhhhhhhffffhhihhhhhhhhhfffhhhhihhhhhhhffffhhhhhihhhhhhfff",
"fhhhhhhihhhhhhhhhhffhhhhihhhffhhhhhhhhhhhihhhhhhhffhhhhhhhiffhhf",
"iiijiiijiiijiiiijififfffffffjiiiijiiijiiijiiijiiiijffffffffiiiji",
"iiijiiijiiijiiijiiiijiiijiifjiiijiiiijiiijiiijiiijiiiifiiijiiiji",
"iijiiiijiiijiiijiiijiiiijiiijiiijiiijiiiijiiijiiijiiijiiiijiiiji",
"iijiiijiiiijiiijiiijiiijiiiijiiijiiijiiijiiiijiiijiiijiiijiiiiji",
"iijiiijiiijiiiijiiijiiijiiijiiiijiiijiiijiiijiiiijiiijiiijiiijei",
"iijiiijiiijiiijiiiijiiieeeijiiijiiiijiiijiiijiiijiiiijiiijiiijei",
"ijiiiijiiejieeeeeeeeeeeeeeeeeeejiiijiiiijiiijiiijiiijiiieeeeeeei",
"ijiieeeeeeeeeeeeeeeeeeeeeeeeeeeeeeijiiijiiiijiiieiiijeeeeeeeeeei",
"fmnnmnmnmnmnmxwnemnmnmnmnmnmnnmnexwnmnmnmnnmnmnmemnmnmxwmnmnmnmf",
"fmnmnmnnmnmnmnmvenmnnmnmnmnmnmnmenmvmnmnmnmnmnnmemnmnmnmvmnnmnmf",
"fmnmnmnmemnnmnmnmvmnmnmnemnmnmnmnmnmnvmnenmnmnmnmnnmnmnmemvmnmnf",
"fnnmnmnmemnmnmnnmnmxmnmnenmnnmnmnmnmnmnxenmnmnmnmnfooooofmnmxmnf",
"feeeeeeeeeeeeeeeeeeeeveeeeeeeeeeeeeeeeeeeveeeeeeeefooooofeeeeevf",
"fwmnmnmnennmnmnmnmnmnmnvwnmnmnmnmnmnnmnmemnvwmnmnnfooooofnmnmnnf",
"ffxfffffenmnmnnmnmnmnmnmexnnmnmnmnmnmnmnemnmnxnmnmfffffffnmnmnmf",
"fyxxvxxfenmnmnmnmnnmnmnffffvffffmnmnmnmnenmnnmnvnmfooooofnmnmnmf",
"fxxyxxvfenmnmnmnmnmnmnnfyxxyxvyfnmnnmnmnenmffffffvfooooofmnmnnmf",
"fxyxxyxfxmnmnnmnmnmnmnmfxxyxxyxxnmnmnmnnenmfyxxyxxfooooofmnmnmnf",
"fyxxyxxfnmvwnmnmenmnmnmfxyxxyxxfevwmnmnmnmnfxxyxxyfooooofmnmnmnf",
"fxxyxxyfnmnmvmnmemnmnnmfyxxyxxyfennvnmnmnmnfxyxxyxfooooofnmnnmnf",
"fxyxxyxfeeeeeexeeeeeeeefxxyxxyxfeeeeexeeeeefyxxyxxfooooofxeeeeef",
"fyxxyxxfmnmnmnmnvmnmnmnfxyxxyxxfenmnmnmvmnnfxxyxxyfffffffnmvmnmf",
"fxxyxxyfmnmnmnmnenvnnmnfyxxyxxyfenmnmnmnmvmfxyxxyxfooooofmnnmvmf",
"ffffffffnmnnmnmnenmnxwmfxxyxxyxfemnmnnmnmnmxwxxyxxfooooofmnmnmnf",
"fvnmnmnmnmnmnmnnenmnmnvfffffffffemnmnmnmnnmfxvyxxyfooooofmnmnmnf",
"fnmvmnnmnmnmnmnmemnnmnmnvnmnmnmnemnmnmnmnmnffffvfffooooofnnmnmnf",
"fnmnmxmnennmnmnmnmnmnmnnenxnmnmnmnmnnmnmemnmnmnmnxfooooofnmnmnnf",
"fnmnmnmvenmnmnnmnmnmnmnmemnnvnmnmnmnmnmnemnmnmnmnmfooooofnmnmnmf",
"feeeeefffvwffffeeeeeeeeeeeeeeevweeeeeeeeeeeeeeeeeefffffffeeeeeef",
"fmnmnmfxyxxxxxfnmnmnmnnmemnmnmnmxmnnmnmnenmnmnmnnmfooooofmnmnnmf",
"fmnmnmfyxxyxxvfnmnmnmnmnennmnfffffvfffnnenmnmnmnmnfooooofvnmnmnf",
"fnmnnmfxxyxxyxfvnnmnmnmnenmnmfyxxyxxvfnmemnnmnmnmnfooooofffvffnf",
"fnmnmnfxyxxyxxfmnmnmnnmnenmnmfxxyxxyxfnmemnmnmnnmnfooooofxxyxfnf",
"fnmnmnfyxxyxxyfmnmnmnmnmenmnmfxyxxyxxfnmemnmnmnmnmfooooofxyxxfmf",
"fmnnmnfxxyxxyxfnemnmnmnmnmnmnfyxxyxxyfmnmnnmnmnmemfooooofyxxyfmf",
"fmnmnmfxyxxyxxfnenmnnmnmnmnmnfxxyxxyxfmnmnmnmnnmemfffffffxxyxfmf",
"feeeeefyxxyxxyfeeeeeeeeeeeeeefxyxxyxxfeeeeeeeeeeeefooooofxyxxfef",
"fnnmnmfffffffffnenmnmnmnmnmnnfyxxyxxyfnmnnmnmnmnenfooooofyxxyfnf",
"fnmnmnnmnmnmnmnmemnnmnmnmnmnmfxxyxxyxfnmnmnmnnmnenfooooofxxyxfnf",
"fnmnmnmnmnnmnmnmemnmnmnnmnmnmfffffffffnmnmnmnmnmenfooooofxyxxfnf",
"fnmnmnmnmnmnmnnmemnmnmnmnmnnmnmnenmnmnmnnmnmnmnmemfoooooffffffmf",
"fmnmnnmnmnmnmnmnennmnmnmnmnmnmnnenmnmnmnmnmnnmnmemfooooofnmnmnmf",
"fmnmnmnmenmnmnmnmnmnmnnmemnmnmnmnmnnmnmnenmnmnmnnmnmnmnmemnmnnmf",
"fmnmnmnmemnmnnmnmnmnmnmnennmnmnmnmnmnmnnenmnmnmnmnmnnmnmemnmnmnf",
"feeeeeeeeeeeeeeeeeeeeeeeeeeeeeeeeeeeeeeeeeeeeeeeeeeeeeeeeeeeeeef",
"fnmnmnmnemnmnmnmnmnmnnmnenmnmnmnmnnmnmnmemnmnmnnmnmnmnmnenmnnmnf",
"fnmnmnmnenmnnmnmnmnmnmnmenmnmnmnmnmnmnnmemnmnmnmnmnnmnmnenmnmnmf",
"fmnnmnmnenmnmnmnnmnmnmnmemnmnnmnmnmnmnmnennmnmnmnmnmnmnnenmnmnmf",
"fmnmnmnnenmnmnmnmnmnnmnmemnmnmnmnnmnmnmnenmnmnnmnmnmnmnmemnnmnmf",
"fmnmnmnmemnnmnmnmnmnmnmnemnmnmnmnmnmnnmnenmnmnmnmnnmnmnmemnmnmnf"
};
